icons/fill-new-food-fork-spoon.svg

<svg xmlns="http://www.w3.org/2000/svg" width="32px" height="32px" viewBox="0 0 32 32" version="1.1">
    <title>fill-new-food-fork-spoon</title>
    <g id="fill-new-food-fork-spoon" stroke-width="1" fill-rule="evenodd">
        <path d="M13,2 C13.5522847,2 14,2.44771525 14,3 L14,10 C14,12.4185387 12.2828356,14.4360122 10.0011864,14.8997409 L10,29 C10,29.5522847 9.55228475,30 9,30 C8.44771525,30 8,29.5522847 8,29 L7.99981203,14.8999437 C5.71766536,14.4366008 4,12.4188915 4,10 L4,3 C4,2.44771525 4.44771525,2 5,2 C5.55228475,2 6,2.44771525 6,3 L6,10 C6,11.3062521 6.8348501,12.4175144 8.00008893,12.8293257 L8,3 C8,2.44771525 8.44771525,2 9,2 C9.55228475,2 10,2.44771525 10,3 L10.0009007,12.8289758 C11.1656226,12.4168852 12,11.3058822 12,10 L12,3 C12,2.44771525 12.4477153,2 13,2 Z M22,2 C25.3137085,2 28,5.581722 28,10 C28,13.9636957 25.8380399,17.254121 23.0006428,17.8892449 L23,29 C23,29.5522847 22.5522847,30 22,30 C21.4477153,30 21,29.5522847 21,29 L21.0003605,17.8894694 C18.1624698,17.2548967 16,13.9641629 16,10 C16,5.581722 18.6862915,2 22,2 Z" id="&#24418;&#29366;" fill-rule="nonzero" />
    </g>
</svg>

<svg xmlns="http://www.w3.org/2000/svg" viewBox="0 0 32 32"><path fill="currentColor" d="M13 2a1 1 0 0 1 1 1v7a5.002 5.002 0 0 1-3.999 4.9L10 29a1 1 0 0 1-2 0V14.9A5.002 5.002 0 0 1 4 10V3a1 1 0 1 1 2 0v7c0 1.306.835 2.418 2 2.83V3a1 1 0 1 1 2 0v9.829A3.001 3.001 0 0 0 12 10V3a1 1 0 0 1 1-1m9 0c3.314 0 6 3.582 6 8 0 3.964-2.162 7.254-5 7.89V29a1 1 0 0 1-2 0V17.89c-2.838-.635-5-3.926-5-7.89 0-4.418 2.686-8 6-8"/></svg>
